!!!!SEGMENT: Ric3010-Tru_tru_trut_avant.krn
!!!id: Ric3010
!!!AGN: Chanson
!!!voices: 3
!!!COM: Jean Richafort
!!!OTL: Tru tru trut avant
**kern	**kern	**kern
*part3	*part2	*part1
*staff3	*staff2	*staff1
*I"Bassus	*I"Tenor	*I"Superius
*I'B	*I'T	*I'S
*clefF4	*clefGv2	*clefGv2
*k[b-]	*k[b-]	*k[b-]
*F:	*F:	*F:
*M2/1	*M2/1	*M2/1
*met(C|)	*met(C|)	*met(C|)
=1	=1	=1
1F	0r	0r
1F	.	.
=2	=2	=2
2.A	0r	1F
4B-y	.	.
2c	.	1F
2A	.	.
=3	=3	=3
2.c	1F	2.A
4B-y	.	4B-y
4A	1F	2c
4G	.	.
[2F	.	2A
=4	=4	=4
2F]	2.A	2.c
4E	.	.
4D	4B-y	4d
1C	1c	4e
.	.	4f
.	.	[2g
=5	=5	=5
2D	2A	2g]
2BB-y	2B-y	1f
1C	1G	.
.	.	2e
=6	=6	=6
2r	0F	1f
2F	.	.
2.A	.	2r
.	.	2F
4B-y	.	.
=7	=7	=7
2c	1r	2.A
2.A	.	.
.	.	4B-y
.	1F	2c
4B-y	.	.
[2c	.	[2A
=8	=8	=8
4c]	1F	4A]
4B-y	.	4B-y
4A	.	2.c
4G	.	.
2.F	2.A	.
.	.	4B-y
.	.	4A
4G	4B-y	4G
=9	=9	=9
2A	1c	4F
.	.	4G
2.F	.	4A
.	.	4B-y
.	2A	2c
4E	.	.
4D	[2B-y	[2d
4C	.	.
=10	=10	=10
1D	4B-]	4d]
.	4A	4c
.	4G	1f
.	4F	.
1C	1G	.
.	.	2e
=11	=11	=11
1r	0F	1f
2D	.	1r
2D	.	.
=12	=12	=12
2F	0r	2A
2F	.	2A
2E	.	2c
2F	.	2c
=13	=13	=13
2.G	0r	2B-y
.	.	2B-y
4F	.	.
4E	.	1c
4D	.	.
[2F	.	.
=14	=14	=14
4F]	0r	2A
4E	.	.
2C	.	2A
2E	.	2c
2E	.	2c
=15	=15	=15
2D	0r	2B-y
2D	.	2B-y
2C	.	[1c
[2c	.	.
=16	=16	=16
4c]	2A	1c]
4B-y	.	.
4A	2A	.
4G	.	.
2F	2c	2r
2A	2c	2c
=17	=17	=17
1G	2B-y	2d
.	2B-y	2d
2C	1c	2.e
[2c	.	.
.	.	4d
=18	=18	=18
4c]	2A	2e
4B-y	.	.
4A	2A	2.f
4G	.	.
2F	2c	.
.	.	4e
2A	2c	2c
=19	=19	=19
1G	2B-y	1d
.	2B-y	.
1r	[1c	1c
=20	=20	=20
1r	1c]	1e
2A	1r	2e
2A	.	2e
=21	=21	=21
2A	0r	2.f
2A	.	.
.	.	4e
2.B-y	.	4d
.	.	4c
.	.	[2d
4A	.	.
=22	=22	=22
1G	1r	2d]
.	.	4c
.	.	4B-y
2.F	2A	4c
.	.	4B-y
.	2A	4A
4E	.	4G
=23	=23	=23
2D	2A	2F
2C	2A	2c
1BB-y	2.B-y	2d
.	.	[2f
.	4A	.
=24	=24	=24
1C	1G	2f]
.	.	2e
2r	[1F	1f
[2F	.	.
=25	=25	=25
2F]	1F]	2r
2F	.	2F
2.A	1r	1F
4B-y	.	.
=26	=26	=26
1c	1r	2.A
.	.	4B-y
2A	1F	1c
[2c	.	.
=27	=27	=27
4c]	1F	2A
4B-y	.	.
4A	.	2.c
4G	.	.
2F	2.A	.
.	.	4B-y
4E	.	4c
4D	4B-y	4d
=28	=28	=28
1C	1c	4e
.	.	4f
.	.	1g
2D	2A	.
2BB-y	2B-y	[2f
=29	=29	=29
1C	1G	2f]
.	.	2e
2r	[1F	1f
2F	.	.
=30	=30	=30
2.A	1F]	2r
.	.	2F
4B-y	.	.
2c	1r	2.A
[2A	.	.
.	.	4B-y
=31	=31	=31
4A]	1F	2c
4B-y	.	.
2.c	.	2.A
.	1F	.
4B-y	.	4B-y
4A	.	[2c
4G	.	.
=32	=32	=32
2.F	2.A	4c]
.	.	4B-y
.	.	4A
4G	4B-y	4G
2A	1c	4F
.	.	4G
[2F	.	4A
.	.	4B-y
=33	=33	=33
4F]	2A	2c
4E	.	.
4D	2.B-y	2.d
4C	.	.
1D	.	.
.	4A	4c
.	4G	[2f
.	4F	.
=34	=34	=34
1C	1G	2f]
.	.	2e
[1Fl	[1Fl	[1fl
=35	=35	=35
00F]	00F]	00f]
==	==	==
*-	*-	*-
!!!system-decoration: [*]
!!!RDF**kern: i = editorial accidental
!!!RDF**kern: l = terminal long
!!!ENC: Benjamin Ory
!!!END: 2024/12/6
!!!EED: Benjamin Ory
!!!EEV: 2024/12/06
!!!YEC: Copyright 2024 Benjamin Ory, All Rights Reserved
!!!ONB: Translated from MusicXML on 2024/12/06